www/assets/icons/repartition.svg

<svg xmlns="http://www.w3.org/2000/svg" width="24" height="24" viewBox="0 0 24 24" fill='currentColor'><path d="M3.5 21.5h18v-6h-18zm7.33-2v-2h3.33v2zm8.67 0h-3.33v-2h3.33zm-14-2h3.33v2H5.5zm1-7 1.42-1.42L6.33 7.5H17.5c1.1 0 2 .9 2 2s-.9 2-2 2h-14v2h14c2.21 0 4-1.79 4-4s-1.79-4-4-4H6.33l1.59-1.59L6.5 2.5l-4 4z"/></svg>

<svg width="24" height="24" viewBox="0 0 24 24" xmlns="http://www.w3.org/2000/svg" fill='currentColor'><path d="M3.5 21.5H21.5V15.5H3.5V21.5ZM10.83 19.5V17.5H14.16V19.5H10.83ZM19.5 19.5H16.17V17.5H19.5V19.5ZM5.5 17.5H8.83V19.5H5.5V17.5Z"/><path d="M6.5 10.5L7.92 9.08L6.33 7.5H17.5C18.6 7.5 19.5 8.4 19.5 9.5C19.5 10.6 18.6 11.5 17.5 11.5H3.5V13.5H17.5C19.71 13.5 21.5 11.71 21.5 9.5C21.5 7.29 19.71 5.5 17.5 5.5H6.33L7.92 3.91L6.5 2.5L2.5 6.5L6.5 10.5Z"/></svg>
